build/img/icon-horse.svg

<svg width="32" height="21" viewBox="0 0 32 21" fill="none" xmlns="http://www.w3.org/2000/svg">
<path d="M24.7616 1.48013C25.4368 1.48013 26.1246 1.52925 26.789 1.57747C27.4347 1.6237 28.1016 1.6721 28.738 1.6721C28.9744 1.6721 29.1911 1.66578 29.4009 1.65242C29.4045 1.65206 29.4081 1.65206 29.4114 1.65206C29.4808 1.65206 29.5452 1.68836 29.5794 1.74939C29.6154 1.81332 29.6125 1.89206 29.5708 1.95274C29.1558 2.56078 29.1986 3.95224 29.2443 5.42537C29.3052 7.39184 29.3678 9.42533 28.4291 10.3969C28.0761 10.7623 27.6024 10.9472 27.0215 10.9472C26.4611 10.9472 26.1271 10.0448 25.7409 9.00041C25.3925 8.05987 24.9596 6.88928 24.4492 6.88928C22.7281 6.88928 22.1137 9.92053 23.5292 12.4219L26.6126 17.7019C26.934 18.252 26.7494 18.9625 26.2013 19.285C26.0245 19.3891 25.8233 19.4443 25.6196 19.4443C25.2784 19.4443 24.9578 19.2948 24.7378 19.0347L20.195 14.1678C18.5751 13.8392 17.0465 13.6723 15.6504 13.6723C14.0763 13.6723 12.326 13.8825 10.446 14.2972L6.01009 19.0346C5.79 19.295 5.47004 19.4442 5.12953 19.4442C4.85942 19.4442 4.59668 19.3478 4.38918 19.1733C3.95639 18.8089 3.84947 18.1902 4.13562 17.7018L7.0461 12.7177C7.26061 9.92088 7.01029 9.01141 6.76158 8.74178C6.68708 8.66124 6.62032 8.65167 6.57641 8.65167C6.32033 8.65167 6.10186 8.74847 5.90822 8.94676C5.20837 9.66605 5.05612 11.5431 5.07679 12.5584C5.07787 12.5674 5.07859 12.5772 5.07859 12.5869C5.07859 12.6931 4.99311 12.7795 4.88694 12.7795H4.8855C4.88118 12.7795 4.87704 12.7791 4.87272 12.7791C4.67801 12.7654 4.49156 12.7578 4.3109 12.7502C3.54283 12.7184 2.93619 12.6931 2.61189 12.2792C2.38821 11.9935 2.34178 11.5677 2.46703 10.9396C2.47224 10.9089 2.4789 10.8673 2.48628 10.8208C2.55881 10.364 2.70925 9.41464 3.23006 8.57238C3.88458 7.51393 4.8963 6.97576 6.23338 6.97576C6.34099 6.97576 6.45041 6.97919 6.5618 6.98623C6.99766 7.01314 7.35147 7.20475 7.66334 7.37343C7.95596 7.53199 8.23272 7.68224 8.5401 7.68224C8.68424 7.68224 8.82947 7.6501 8.98314 7.58454C10.0515 7.13036 11.2619 6.90967 12.6823 6.90967C13.2641 6.90967 13.89 6.94615 14.5962 7.02128C14.8033 7.04313 15.0038 7.05451 15.1922 7.05451H15.1929C17.0015 7.05415 17.7325 6.02783 18.5798 4.83883C19.2316 3.92377 19.9701 2.88752 21.3069 2.19693C22.2548 1.70761 23.3523 1.47941 24.7617 1.47941L24.7616 1.48013ZM24.7617 0C23.1093 0 21.7974 0.27992 20.6324 0.880917C18.9775 1.73602 18.0921 2.97921 17.3806 3.97807C16.5355 5.16419 16.1925 5.57432 15.1926 5.57469C15.0559 5.57469 14.9078 5.5662 14.7517 5.54959C13.9925 5.46904 13.3159 5.42985 12.6824 5.42985C11.1182 5.42985 9.76225 5.67095 8.54244 6.16612C8.48557 6.13723 8.41971 6.10147 8.36464 6.07185C7.98403 5.8658 7.41229 5.55661 6.65359 5.50931C6.51448 5.50046 6.37303 5.49594 6.2334 5.49594C4.37765 5.49594 2.90597 6.29002 1.97732 7.79236C1.30069 8.88676 1.11137 10.0781 1.03058 10.587L1.02104 10.6466L1.01618 10.677C0.932863 11.0967 0.721769 12.2593 1.45296 13.193C2.19744 14.1432 3.33587 14.1902 4.25077 14.2278C4.31627 14.2307 4.38268 14.2336 4.45016 14.2365L2.86383 16.9533C2.21256 18.0654 2.45551 19.4762 3.44202 20.3065C3.91421 20.7038 4.51348 20.9231 5.12967 20.9231C5.88856 20.9231 6.6057 20.5962 7.10472 20.0252L11.2042 15.6472C12.8123 15.3178 14.3059 15.151 15.6508 15.151C16.8178 15.151 18.0926 15.2777 19.4458 15.5288L23.6425 20.0236C24.1417 20.5954 24.8594 20.9229 25.6199 20.9229C26.0856 20.9229 26.5449 20.7976 26.9473 20.5603C28.1965 19.8257 28.6173 18.2076 27.8848 16.9532L24.8063 11.6827C24.2729 10.7364 24.1718 9.82046 24.2351 9.18406C24.2812 9.30577 24.3229 9.41955 24.3586 9.51472C24.8632 10.8794 25.4351 12.4261 27.0212 12.4261C28.002 12.4261 28.855 12.0804 29.487 11.4263C30.8601 10.005 30.7874 7.6538 30.7176 5.37994C30.6917 4.54038 30.6481 3.14459 30.8061 2.75953C31.1441 2.24396 31.1682 1.56454 30.863 1.02204C30.5693 0.497954 30.0129 0.172002 29.4111 0.172002C29.3798 0.172002 29.3434 0.173446 29.3092 0.175433C29.1303 0.186449 28.9435 0.192047 28.7377 0.192047C28.16 0.192047 27.5258 0.146537 26.9122 0.102473C26.241 0.054022 25.4984 2.39849e-05 24.7631 2.39849e-05" fill="#48494D"/>
</svg>

<svg width="32" height="21" fill="none" xmlns="http://www.w3.org/2000/svg"><path d="M24.762 1.48c.675 0 1.363.05 2.027.097.646.047 1.313.095 1.949.095.236 0 .453-.006.663-.02h.01a.192.192 0 01.16.3c-.415.609-.372 2-.327 3.473.061 1.967.124 4-.815 4.972-.353.365-.827.55-1.407.55-.56 0-.895-.902-1.281-1.947-.349-.94-.781-2.11-1.292-2.11-1.72 0-2.335 3.03-.92 5.532l3.084 5.28a1.16 1.16 0 01-.412 1.583 1.148 1.148 0 01-1.463-.25l-4.543-4.867c-1.62-.329-3.148-.496-4.545-.496-1.574 0-3.324.21-5.204.625L6.01 19.035a1.15 1.15 0 01-1.62.138 1.155 1.155 0 01-.254-1.471l2.91-4.984c.215-2.797-.036-3.707-.284-3.976-.075-.08-.142-.09-.186-.09a.9.9 0 00-.668.295c-.7.72-.852 2.596-.831 3.611a.192.192 0 01-.19.221h-.014c-.195-.014-.381-.021-.562-.029-.768-.032-1.375-.057-1.7-.47-.223-.287-.27-.712-.144-1.34l.02-.12c.072-.456.222-1.405.743-2.248.655-1.058 1.666-1.596 3.003-1.596.108 0 .217.003.329.01.436.027.79.219 1.101.387.293.159.57.31.877.31.144 0 .29-.033.443-.098 1.069-.455 2.279-.675 3.7-.675.581 0 1.207.036 1.913.111.207.022.408.034.596.034 1.81 0 2.54-1.027 3.388-2.216.652-.915 1.39-1.951 2.727-2.642.948-.49 2.045-.718 3.455-.718v.001zm0-1.48c-1.653 0-2.965.28-4.13.88-1.655.856-2.54 2.1-3.251 3.098-.846 1.186-1.189 1.596-2.188 1.597-.137 0-.285-.009-.441-.025a19.45 19.45 0 00-2.07-.12c-1.564 0-2.92.241-4.14.736l-.177-.094c-.381-.206-.953-.515-1.711-.563a6.65 6.65 0 00-.42-.013c-1.856 0-3.328.794-4.257 2.296-.676 1.095-.866 2.286-.946 2.795l-.01.06-.005.03c-.083.42-.294 1.582.437 2.516.744.95 1.883.997 2.798 1.035l.2.008-1.587 2.717a2.634 2.634 0 002.266 3.97c.759 0 1.476-.327 1.975-.898l4.1-4.378c1.607-.33 3.1-.496 4.446-.496 1.167 0 2.442.127 3.795.378l4.196 4.495a2.62 2.62 0 003.305.536 2.644 2.644 0 00.938-3.607l-3.079-5.27c-.533-.947-.634-1.863-.57-2.499l.123.33c.504 1.365 1.076 2.912 2.662 2.912.981 0 1.834-.346 2.466-1 1.373-1.421 1.3-3.772 1.23-6.046-.025-.84-.069-2.235.09-2.62a1.686 1.686 0 00.056-1.738 1.666 1.666 0 00-1.554-.847 9.23 9.23 0 01-.571.017c-.578 0-1.212-.045-1.826-.09C26.241.054 25.498 0 24.763 0" fill="#48494D"/></svg>
